X: 5231
T: Broken Compass, The
R: jig
M: 6/8
K: Adorian
A,3 B,G,B,|A,CA, DEG|AGE DCD|E3 DCB,|A,3 B,G,B,
A,CA, DEG|1 AGE DB,G,|B,A,G, A,2G,:|2 AGE GAB|dcB A2A||
B3 GED|EDB, DEG|AGE GBd|cBA AGA|B3 GED|EDB, DEG|
AGE GBd|dcB A2A|B3 GED|EDB, DEG|AGE GBd|
edB def|g3 eaf|gba gab|bag gfe|dcB AEC||

